images/green-tri.svg

<svg width="1280" height="678" xmlns="http://www.w3.org/2000/svg"><path d="M-54-30l-46 109 125-6z" fill="#fcffdc" stroke="#fcffdc"/><path d="M-54-30L25 73 62-73z" fill="#feffe1" stroke="#feffe1"/><path d="M62-73L25 73l164-5z" fill="#f5fcd4" stroke="#f5fcd4"/><path d="M62-73L189 68l45-192z" fill="#f0f9d9" stroke="#f0f9d9"/><path d="M234-124L189 68l145-52z" fill="#e7f5ce" stroke="#e7f5ce"/><path d="M234-124L334 16l58-146z" fill="#e1f3cc" stroke="#e1f3cc"/><path d="M392-130L334 16 570-85z" fill="#d4edc7" stroke="#d4edc7"/><path d="M392-130l178 45 47-8z" fill="#c9e8c2" stroke="#c9e8c2"/><path d="M392-130l225 37 257-17z" fill="#bde3bd" stroke="#bde3bd"/><path d="M570-85L334 16l230 42z" fill="#cdeabe" stroke="#cdeabe"/><path d="M570-85l-6 143 53-151z" fill="#c2e6bf" stroke="#c2e6bf"/><path d="M617-93L564 58l146 46z" fill="#bbe3b3" stroke="#bbe3b3"/><path d="M617-93l93 197 164-214z" fill="#afd9b4" stroke="#afd9b4"/><path d="M874-110L710 104l164-54z" fill="#a3d0a5" stroke="#a3d0a5"/><path d="M874-110V50l66-96z" fill="#9ac8a7" stroke="#9ac8a7"/><path d="M874-110l66 64 215-45z" fill="#8dbf9f" stroke="#8dbf9f"/><path d="M940-46l-66 96 105 28z" fill="#93c599" stroke="#93c599"/><path d="M940-46l39 124 176-169z" fill="#89bb99" stroke="#89bb99"/><path d="M1155-91L979 78l169-2z" fill="#7eb48c" stroke="#7eb48c"/><path d="M1155-91l-7 167 138-142z" fill="#80a98c" stroke="#80a98c"/><path d="M1155-91l131 25 169 11z" fill="#809f85" stroke="#809f85"/><path d="M1286-66L1148 76l159 2z" fill="#7ea47e" stroke="#7ea47e"/><path d="M1286-66l21 144 148-133z" fill="#809a7d" stroke="#809a7d"/><path d="M1455-55L1307 78l142 49z" fill="#7c9471" stroke="#7c9471"/><path d="M1455-55l-6 182 17 275z" fill="#758f5d" stroke="#758f5d"/><path d="M-100 79l-17 755 58-345z" fill="#a1d89e" stroke="#a1d89e"/><path d="M-100 79l41 410-9-314z" fill="#dffbbe" stroke="#dffbbe"/><path d="M-100 79l32 96L25 73z" fill="#f8ffd0" stroke="#f8ffd0"/><path d="M25 73l-93 102 100 28z" fill="#f5ffc5" stroke="#f5ffc5"/><path d="M25 73l7 130L189 68z" fill="#effcc5" stroke="#effcc5"/><path d="M189 68L32 203l166 15z" fill="#e6fab7" stroke="#e6fab7"/><path d="M189 68l9 150 180-4z" fill="#dbf5ad" stroke="#dbf5ad"/><path d="M189 68l189 146-44-198z" fill="#dcf4b6" stroke="#dcf4b6"/><path d="M334 16l44 198 119-21z" fill="#cdefa9" stroke="#cdefa9"/><path d="M334 16l163 177 67-135z" fill="#c9ecaf" stroke="#c9ecaf"/><path d="M564 58l-67 135 213-89z" fill="#b9e5a3" stroke="#b9e5a3"/><path d="M710 104l-213 89 200 61z" fill="#ade297" stroke="#ade297"/><path d="M710 104l-13 150 182-49z" fill="#9bd58b" stroke="#9bd58b"/><path d="M710 104l169 101-5-155z" fill="#9bd091" stroke="#9bd091"/><path d="M874 50l5 155L979 78z" fill="#90c78b" stroke="#90c78b"/><path d="M979 78L879 205l76 8z" fill="#89c47f" stroke="#89c47f"/><path d="M979 78l-24 135 158-42z" fill="#7fbc7b" stroke="#7fbc7b"/><path d="M979 78l134 93 35-95z" fill="#7ab57e" stroke="#7ab57e"/><path d="M1148 76l-35 95 188 9z" fill="#76aa6f" stroke="#76aa6f"/><path d="M1148 76l153 104 6-102z" fill="#78a46f" stroke="#78a46f"/><path d="M1307 78l-6 102 148-53z" fill="#779963" stroke="#779963"/><path d="M1449 127l-148 53 116 97z" fill="#6d9458" stroke="#6d9458"/><path d="M1449 127l-32 150 49 125z" fill="#5a8a50" stroke="#5a8a50"/><path d="M-68 175l9 314 36-131z" fill="#c7f5b2" stroke="#c7f5b2"/><path d="M-68 175l45 183 55-155z" fill="#e0fbba" stroke="#e0fbba"/><path d="M32 203l-55 155 144-10z" fill="#cdf6af" stroke="#cdf6af"/><path d="M32 203l89 145 77-130z" fill="#d2f6ae" stroke="#d2f6ae"/><path d="M198 218l-77 130 79 54z" fill="#bbf0a2" stroke="#bbf0a2"/><path d="M198 218l2 184 125-7z" fill="#b0ec9b" stroke="#b0ec9b"/><path d="M198 218l127 177 53-181z" fill="#bbee9d" stroke="#bbee9d"/><path d="M378 214l-53 181 259-70z" fill="#a3e592" stroke="#a3e592"/><path d="M378 214l206 111-87-132z" fill="#aee697" stroke="#aee697"/><path d="M497 193l87 132 113-71z" fill="#9ee090" stroke="#9ee090"/><path d="M697 254l-113 71 54 3z" fill="#8ddb89" stroke="#8ddb89"/><path d="M697 254l-59 74 138 54z" fill="#80d481" stroke="#80d481"/><path d="M697 254l79 128 103-177z" fill="#80ce7f" stroke="#80ce7f"/><path d="M879 205L776 382l191 27z" fill="#67c272" stroke="#67c272"/><path d="M879 205l88 204-12-196z" fill="#6dbe73" stroke="#6dbe73"/><path d="M955 213l12 196 126-28z" fill="#54b466" stroke="#54b466"/><path d="M955 213l138 168 20-210z" fill="#63b36b" stroke="#63b36b"/><path d="M1113 171l-20 210 235-40z" fill="#52a45c" stroke="#52a45c"/><path d="M1113 171l215 170-27-161z" fill="#64a15e" stroke="#64a15e"/><path d="M1301 180l27 161 89-64z" fill="#5b9451" stroke="#5b9451"/><path d="M1417 277l-89 64 138 61z" fill="#478a48" stroke="#478a48"/><path d="M-23 358l-36 131 126 34z" fill="#a4da99" stroke="#a4da99"/><path d="M-23 358l90 165 54-175z" fill="#ade39c" stroke="#ade39c"/><path d="M121 348L67 523l133-121z" fill="#a1dd94" stroke="#a1dd94"/><path d="M200 402L67 523l183 23z" fill="#89cc84" stroke="#89cc84"/><path d="M200 402l50 144 83-70z" fill="#85cc80" stroke="#85cc80"/><path d="M200 402l133 74-8-81z" fill="#92d787" stroke="#92d787"/><path d="M325 395l8 81 251-151z" fill="#8cd785" stroke="#8cd785"/><path d="M584 325L333 476l157 104z" fill="#73c576" stroke="#73c576"/><path d="M584 325l-94 255 169-46z" fill="#60bb6d" stroke="#60bb6d"/><path d="M584 325l75 209-21-206z" fill="#74cd7b" stroke="#74cd7b"/><path d="M638 328l21 206 117-152z" fill="#66c272" stroke="#66c272"/><path d="M776 382L659 534l172 5z" fill="#48ab60" stroke="#48ab60"/><path d="M776 382l55 157 136-130z" fill="#47aa5f" stroke="#47aa5f"/><path d="M967 409L831 539l102 14z" fill="#2f984f" stroke="#2f984f"/><path d="M967 409l-34 144 182-87z" fill="#2a944c" stroke="#2a944c"/><path d="M967 409l148 57-22-85z" fill="#349c52" stroke="#349c52"/><path d="M1093 381l22 85 213-125z" fill="#37944c" stroke="#37944c"/><path d="M1328 341l-213 125 174 32z" fill="#2b8440" stroke="#2b8440"/><path d="M1328 341l-39 157 95 31z" fill="#257634" stroke="#257634"/><path d="M1328 341l56 188 82-127z" fill="#2e7838" stroke="#2e7838"/><path d="M1466 402l-82 127 64 156z" fill="#0c5923" stroke="#0c5923"/><path d="M-59 489l-58 345 56-143z" fill="#80a876" stroke="#80a876"/><path d="M-59 489l-2 202L67 523z" fill="#82c085" stroke="#82c085"/><path d="M67 523L-61 691l124-6z" fill="#7eb075" stroke="#7eb075"/><path d="M67 523l-4 162 133-10z" fill="#75ae6f" stroke="#75ae6f"/><path d="M67 523l129 152 54-129z" fill="#6fb773" stroke="#6fb773"/><path d="M250 546l-54 129 175-8z" fill="#66a862" stroke="#66a862"/><path d="M250 546l121 121-38-191z" fill="#65b56a" stroke="#65b56a"/><path d="M333 476l38 191 119-87z" fill="#59ae64" stroke="#59ae64"/><path d="M490 580l-119 87 195-31z" fill="#4f9e56" stroke="#4f9e56"/><path d="M490 580l76 56 93-102z" fill="#44a45a" stroke="#44a45a"/><path d="M659 534l-93 102 121-5z" fill="#3d9c53" stroke="#3d9c53"/><path d="M659 534l28 97 144-92z" fill="#339b53" stroke="#339b53"/><path d="M831 539l-144 92 142 13z" fill="#298d47" stroke="#298d47"/><path d="M831 539l-2 105 104-91z" fill="#1e8a45" stroke="#1e8a45"/><path d="M933 553l-104 91 145 14z" fill="#187c39" stroke="#187c39"/><path d="M933 553l41 105 141-192z" fill="#11803c" stroke="#11803c"/><path d="M1115 466L974 658l208 15z" fill="#006e2e" stroke="#006e2e"/><path d="M1115 466l67 207 57-33z" fill="#006727" stroke="#006727"/><path d="M1115 466l124 174 50-142z" fill="#0d712f" stroke="#0d712f"/><path d="M1289 498l-50 142 145-111z" fill="#076224" stroke="#076224"/><path d="M1384 529l-145 111 209 45z" fill="#004e14" stroke="#004e14"/><path d="M-61 691l-56 143 178 19z" fill="#808c69" stroke="#808c69"/><path d="M-61 691L61 853l2-168z" fill="#7e9765" stroke="#7e9765"/><path d="M63 685l-2 168 117-80z" fill="#768d5e" stroke="#768d5e"/><path d="M63 685l115 88 18-98z" fill="#729a5d" stroke="#729a5d"/><path d="M196 675l-18 98 166 50z" fill="#698b53" stroke="#698b53"/><path d="M196 675l148 148 27-156z" fill="#63914e" stroke="#63914e"/><path d="M371 667l-27 156 187 59z" fill="#567b48" stroke="#567b48"/><path d="M371 667l160 215 35-246z" fill="#4e8644" stroke="#4e8644"/><path d="M566 636l-35 246 153-39z" fill="#42733f" stroke="#42733f"/><path d="M566 636l118 207 3-212z" fill="#3b843f" stroke="#3b843f"/><path d="M687 631l-3 212 145-199z" fill="#307a37" stroke="#307a37"/><path d="M829 644L684 843l168 40z" fill="#296130" stroke="#296130"/><path d="M829 644l23 239 122-225z" fill="#1c6528" stroke="#1c6528"/><path d="M974 658L852 883l181-71z" fill="#135122" stroke="#135122"/><path d="M974 658l59 154 149-139z" fill="#04561a" stroke="#04561a"/><path d="M1182 673l-149 139 82 25z" fill="#004315" stroke="#004315"/><path d="M1182 673l-67 164 108-5z" fill="#003b10" stroke="#003b10"/><path d="M1182 673l41 159 16-192z" fill="#00460d" stroke="#00460d"/><path d="M1239 640l-16 192 225-147z" fill="#003c05" stroke="#003c05"/><path d="M1448 685l-225 147 184 24z" fill="#002600" stroke="#002600"/><path d="M61 853l470 29-187-59z" fill="#62744d" stroke="#62744d"/><path d="M61 853l283-30-166-50z" fill="#6d7f57" stroke="#6d7f57"/><path d="M531 882l321 1-168-40z" fill="#365e39" stroke="#365e39"/><path d="M852 883l555-27-292-19z" fill="#003114" stroke="#003114"/><path d="M852 883l263-46-82-25z" fill="#0c3f1e" stroke="#0c3f1e"/><path d="M1115 837l292 19-184-24z" fill="#002609" stroke="#002609"/></svg>

<svg width="1280" height="678" xmlns="http://www.w3.org/2000/svg"><g><path d="M-54,-30L-100,79L25,73Z" fill="#fcffdc" stroke="#fcffdc"/><path d="M-54,-30L25,73L62,-73Z" fill="#feffe1" stroke="#feffe1"/><path d="M62,-73L25,73L189,68Z" fill="#f5fcd4" stroke="#f5fcd4"/><path d="M62,-73L189,68L234,-124Z" fill="#f0f9d9" stroke="#f0f9d9"/><path d="M234,-124L189,68L334,16Z" fill="#e7f5ce" stroke="#e7f5ce"/><path d="M234,-124L334,16L392,-130Z" fill="#e1f3cc" stroke="#e1f3cc"/><path d="M392,-130L334,16L570,-85Z" fill="#d4edc7" stroke="#d4edc7"/><path d="M392,-130L570,-85L617,-93Z" fill="#c9e8c2" stroke="#c9e8c2"/><path d="M392,-130L617,-93L874,-110Z" fill="#bde3bd" stroke="#bde3bd"/><path d="M570,-85L334,16L564,58Z" fill="#cdeabe" stroke="#cdeabe"/><path d="M570,-85L564,58L617,-93Z" fill="#c2e6bf" stroke="#c2e6bf"/><path d="M617,-93L564,58L710,104Z" fill="#bbe3b3" stroke="#bbe3b3"/><path d="M617,-93L710,104L874,-110Z" fill="#afd9b4" stroke="#afd9b4"/><path d="M874,-110L710,104L874,50Z" fill="#a3d0a5" stroke="#a3d0a5"/><path d="M874,-110L874,50L940,-46Z" fill="#9ac8a7" stroke="#9ac8a7"/><path d="M874,-110L940,-46L1155,-91Z" fill="#8dbf9f" stroke="#8dbf9f"/><path d="M940,-46L874,50L979,78Z" fill="#93c599" stroke="#93c599"/><path d="M940,-46L979,78L1155,-91Z" fill="#89bb99" stroke="#89bb99"/><path d="M1155,-91L979,78L1148,76Z" fill="#7eb48c" stroke="#7eb48c"/><path d="M1155,-91L1148,76L1286,-66Z" fill="#80a98c" stroke="#80a98c"/><path d="M1155,-91L1286,-66L1455,-55Z" fill="#809f85" stroke="#809f85"/><path d="M1286,-66L1148,76L1307,78Z" fill="#7ea47e" stroke="#7ea47e"/><path d="M1286,-66L1307,78L1455,-55Z" fill="#809a7d" stroke="#809a7d"/><path d="M1455,-55L1307,78L1449,127Z" fill="#7c9471" stroke="#7c9471"/><path d="M1455,-55L1449,127L1466,402Z" fill="#758f5d" stroke="#758f5d"/><path d="M-100,79L-117,834L-59,489Z" fill="#a1d89e" stroke="#a1d89e"/><path d="M-100,79L-59,489L-68,175Z" fill="#dffbbe" stroke="#dffbbe"/><path d="M-100,79L-68,175L25,73Z" fill="#f8ffd0" stroke="#f8ffd0"/><path d="M25,73L-68,175L32,203Z" fill="#f5ffc5" stroke="#f5ffc5"/><path d="M25,73L32,203L189,68Z" fill="#effcc5" stroke="#effcc5"/><path d="M189,68L32,203L198,218Z" fill="#e6fab7" stroke="#e6fab7"/><path d="M189,68L198,218L378,214Z" fill="#dbf5ad" stroke="#dbf5ad"/><path d="M189,68L378,214L334,16Z" fill="#dcf4b6" stroke="#dcf4b6"/><path d="M334,16L378,214L497,193Z" fill="#cdefa9" stroke="#cdefa9"/><path d="M334,16L497,193L564,58Z" fill="#c9ecaf" stroke="#c9ecaf"/><path d="M564,58L497,193L710,104Z" fill="#b9e5a3" stroke="#b9e5a3"/><path d="M710,104L497,193L697,254Z" fill="#ade297" stroke="#ade297"/><path d="M710,104L697,254L879,205Z" fill="#9bd58b" stroke="#9bd58b"/><path d="M710,104L879,205L874,50Z" fill="#9bd091" stroke="#9bd091"/><path d="M874,50L879,205L979,78Z" fill="#90c78b" stroke="#90c78b"/><path d="M979,78L879,205L955,213Z" fill="#89c47f" stroke="#89c47f"/><path d="M979,78L955,213L1113,171Z" fill="#7fbc7b" stroke="#7fbc7b"/><path d="M979,78L1113,171L1148,76Z" fill="#7ab57e" stroke="#7ab57e"/><path d="M1148,76L1113,171L1301,180Z" fill="#76aa6f" stroke="#76aa6f"/><path d="M1148,76L1301,180L1307,78Z" fill="#78a46f" stroke="#78a46f"/><path d="M1307,78L1301,180L1449,127Z" fill="#779963" stroke="#779963"/><path d="M1449,127L1301,180L1417,277Z" fill="#6d9458" stroke="#6d9458"/><path d="M1449,127L1417,277L1466,402Z" fill="#5a8a50" stroke="#5a8a50"/><path d="M-68,175L-59,489L-23,358Z" fill="#c7f5b2" stroke="#c7f5b2"/><path d="M-68,175L-23,358L32,203Z" fill="#e0fbba" stroke="#e0fbba"/><path d="M32,203L-23,358L121,348Z" fill="#cdf6af" stroke="#cdf6af"/><path d="M32,203L121,348L198,218Z" fill="#d2f6ae" stroke="#d2f6ae"/><path d="M198,218L121,348L200,402Z" fill="#bbf0a2" stroke="#bbf0a2"/><path d="M198,218L200,402L325,395Z" fill="#b0ec9b" stroke="#b0ec9b"/><path d="M198,218L325,395L378,214Z" fill="#bbee9d" stroke="#bbee9d"/><path d="M378,214L325,395L584,325Z" fill="#a3e592" stroke="#a3e592"/><path d="M378,214L584,325L497,193Z" fill="#aee697" stroke="#aee697"/><path d="M497,193L584,325L697,254Z" fill="#9ee090" stroke="#9ee090"/><path d="M697,254L584,325L638,328Z" fill="#8ddb89" stroke="#8ddb89"/><path d="M697,254L638,328L776,382Z" fill="#80d481" stroke="#80d481"/><path d="M697,254L776,382L879,205Z" fill="#80ce7f" stroke="#80ce7f"/><path d="M879,205L776,382L967,409Z" fill="#67c272" stroke="#67c272"/><path d="M879,205L967,409L955,213Z" fill="#6dbe73" stroke="#6dbe73"/><path d="M955,213L967,409L1093,381Z" fill="#54b466" stroke="#54b466"/><path d="M955,213L1093,381L1113,171Z" fill="#63b36b" stroke="#63b36b"/><path d="M1113,171L1093,381L1328,341Z" fill="#52a45c" stroke="#52a45c"/><path d="M1113,171L1328,341L1301,180Z" fill="#64a15e" stroke="#64a15e"/><path d="M1301,180L1328,341L1417,277Z" fill="#5b9451" stroke="#5b9451"/><path d="M1417,277L1328,341L1466,402Z" fill="#478a48" stroke="#478a48"/><path d="M-23,358L-59,489L67,523Z" fill="#a4da99" stroke="#a4da99"/><path d="M-23,358L67,523L121,348Z" fill="#ade39c" stroke="#ade39c"/><path d="M121,348L67,523L200,402Z" fill="#a1dd94" stroke="#a1dd94"/><path d="M200,402L67,523L250,546Z" fill="#89cc84" stroke="#89cc84"/><path d="M200,402L250,546L333,476Z" fill="#85cc80" stroke="#85cc80"/><path d="M200,402L333,476L325,395Z" fill="#92d787" stroke="#92d787"/><path d="M325,395L333,476L584,325Z" fill="#8cd785" stroke="#8cd785"/><path d="M584,325L333,476L490,580Z" fill="#73c576" stroke="#73c576"/><path d="M584,325L490,580L659,534Z" fill="#60bb6d" stroke="#60bb6d"/><path d="M584,325L659,534L638,328Z" fill="#74cd7b" stroke="#74cd7b"/><path d="M638,328L659,534L776,382Z" fill="#66c272" stroke="#66c272"/><path d="M776,382L659,534L831,539Z" fill="#48ab60" stroke="#48ab60"/><path d="M776,382L831,539L967,409Z" fill="#47aa5f" stroke="#47aa5f"/><path d="M967,409L831,539L933,553Z" fill="#2f984f" stroke="#2f984f"/><path d="M967,409L933,553L1115,466Z" fill="#2a944c" stroke="#2a944c"/><path d="M967,409L1115,466L1093,381Z" fill="#349c52" stroke="#349c52"/><path d="M1093,381L1115,466L1328,341Z" fill="#37944c" stroke="#37944c"/><path d="M1328,341L1115,466L1289,498Z" fill="#2b8440" stroke="#2b8440"/><path d="M1328,341L1289,498L1384,529Z" fill="#257634" stroke="#257634"/><path d="M1328,341L1384,529L1466,402Z" fill="#2e7838" stroke="#2e7838"/><path d="M1466,402L1384,529L1448,685Z" fill="#0c5923" stroke="#0c5923"/><path d="M-59,489L-117,834L-61,691Z" fill="#80a876" stroke="#80a876"/><path d="M-59,489L-61,691L67,523Z" fill="#82c085" stroke="#82c085"/><path d="M67,523L-61,691L63,685Z" fill="#7eb075" stroke="#7eb075"/><path d="M67,523L63,685L196,675Z" fill="#75ae6f" stroke="#75ae6f"/><path d="M67,523L196,675L250,546Z" fill="#6fb773" stroke="#6fb773"/><path d="M250,546L196,675L371,667Z" fill="#66a862" stroke="#66a862"/><path d="M250,546L371,667L333,476Z" fill="#65b56a" stroke="#65b56a"/><path d="M333,476L371,667L490,580Z" fill="#59ae64" stroke="#59ae64"/><path d="M490,580L371,667L566,636Z" fill="#4f9e56" stroke="#4f9e56"/><path d="M490,580L566,636L659,534Z" fill="#44a45a" stroke="#44a45a"/><path d="M659,534L566,636L687,631Z" fill="#3d9c53" stroke="#3d9c53"/><path d="M659,534L687,631L831,539Z" fill="#339b53" stroke="#339b53"/><path d="M831,539L687,631L829,644Z" fill="#298d47" stroke="#298d47"/><path d="M831,539L829,644L933,553Z" fill="#1e8a45" stroke="#1e8a45"/><path d="M933,553L829,644L974,658Z" fill="#187c39" stroke="#187c39"/><path d="M933,553L974,658L1115,466Z" fill="#11803c" stroke="#11803c"/><path d="M1115,466L974,658L1182,673Z" fill="#006e2e" stroke="#006e2e"/><path d="M1115,466L1182,673L1239,640Z" fill="#006727" stroke="#006727"/><path d="M1115,466L1239,640L1289,498Z" fill="#0d712f" stroke="#0d712f"/><path d="M1289,498L1239,640L1384,529Z" fill="#076224" stroke="#076224"/><path d="M1384,529L1239,640L1448,685Z" fill="#004e14" stroke="#004e14"/><path d="M-61,691L-117,834L61,853Z" fill="#808c69" stroke="#808c69"/><path d="M-61,691L61,853L63,685Z" fill="#7e9765" stroke="#7e9765"/><path d="M63,685L61,853L178,773Z" fill="#768d5e" stroke="#768d5e"/><path d="M63,685L178,773L196,675Z" fill="#729a5d" stroke="#729a5d"/><path d="M196,675L178,773L344,823Z" fill="#698b53" stroke="#698b53"/><path d="M196,675L344,823L371,667Z" fill="#63914e" stroke="#63914e"/><path d="M371,667L344,823L531,882Z" fill="#567b48" stroke="#567b48"/><path d="M371,667L531,882L566,636Z" fill="#4e8644" stroke="#4e8644"/><path d="M566,636L531,882L684,843Z" fill="#42733f" stroke="#42733f"/><path d="M566,636L684,843L687,631Z" fill="#3b843f" stroke="#3b843f"/><path d="M687,631L684,843L829,644Z" fill="#307a37" stroke="#307a37"/><path d="M829,644L684,843L852,883Z" fill="#296130" stroke="#296130"/><path d="M829,644L852,883L974,658Z" fill="#1c6528" stroke="#1c6528"/><path d="M974,658L852,883L1033,812Z" fill="#135122" stroke="#135122"/><path d="M974,658L1033,812L1182,673Z" fill="#04561a" stroke="#04561a"/><path d="M1182,673L1033,812L1115,837Z" fill="#004315" stroke="#004315"/><path d="M1182,673L1115,837L1223,832Z" fill="#003b10" stroke="#003b10"/><path d="M1182,673L1223,832L1239,640Z" fill="#00460d" stroke="#00460d"/><path d="M1239,640L1223,832L1448,685Z" fill="#003c05" stroke="#003c05"/><path d="M1448,685L1223,832L1407,856Z" fill="#002600" stroke="#002600"/><path d="M61,853L531,882L344,823Z" fill="#62744d" stroke="#62744d"/><path d="M61,853L344,823L178,773Z" fill="#6d7f57" stroke="#6d7f57"/><path d="M531,882L852,883L684,843Z" fill="#365e39" stroke="#365e39"/><path d="M852,883L1407,856L1115,837Z" fill="#003114" stroke="#003114"/><path d="M852,883L1115,837L1033,812Z" fill="#0c3f1e" stroke="#0c3f1e"/><path d="M1115,837L1407,856L1223,832Z" fill="#002609" stroke="#002609"/></g></svg>
